christmas.trees/img/svg/icon-logo-footer__.svg

<svg width="95" height="150" viewBox="0 0 95 150" fill="none" xmlns="http://www.w3.org/2000/svg">
<path d="M94.3233 62.4551C93.706 60.6953 92.1833 59.7539 90.5783 59.7539C90.496 59.7539 90.3725 59.7539 90.2902 59.7539C88.8499 59.713 87.3684 59.6721 85.928 59.6721C85.2284 59.6721 84.5699 59.6311 83.9115 59.6311C82.8827 59.6311 81.8538 59.6311 80.825 59.6311C79.5081 59.6311 78.15 59.713 76.8331 59.8358C65.9687 60.859 56.7503 67.2846 51.8119 76.1249C51.6473 76.4114 51.5239 76.6569 51.3593 76.9434C51.277 77.0662 51.1535 77.1071 51.1535 77.0662C51.1123 77.0253 51.0712 76.9843 51.0712 76.9025C50.9889 75.5519 50.9477 74.2013 50.8654 72.8098C50.7831 70.7634 50.7008 68.6761 50.5362 66.6297C50.495 65.934 50.495 65.2382 50.4539 64.5015C50.4539 64.0513 50.5362 63.642 50.6597 63.2327C50.8654 62.4551 51.3181 61.8412 51.9354 61.3501C52.3469 61.0227 52.7996 60.7771 53.3346 60.5725C53.705 60.4088 54.0754 60.286 54.4869 60.1632C56.1742 59.5902 57.8615 58.8535 59.4253 57.9531C64.0756 55.2928 67.2033 51.3638 68.8083 46.2888C69.2609 44.8564 69.5902 43.383 69.7959 41.8687C70.1663 39.2084 70.2075 36.589 70.0428 33.9288C69.9605 32.7419 69.8782 31.5959 69.7548 30.409C69.5902 28.8538 69.3432 27.3395 69.014 25.8252C68.3967 22.7965 67.4913 19.8498 66.2567 16.9848C64.446 12.7693 61.9356 9.00401 58.7668 5.6889C57.738 4.62479 56.6269 3.64253 55.3923 2.78306C53.7873 1.67802 52.0589 0.818544 50.207 0.368344C49.2604 0.12278 48.3139 0 47.3262 0C46.3797 0 45.392 0.12278 44.4455 0.368344C42.5525 0.818544 40.824 1.67802 39.2602 2.78306C38.0256 3.64253 36.9145 4.62479 35.8856 5.6889C32.7168 9.04494 30.2065 12.8103 28.3957 16.9848C27.1611 19.8088 26.2558 22.7965 25.6385 25.8252C25.3093 27.3395 25.0623 28.8538 24.8977 30.409C24.7743 31.555 24.692 32.7419 24.6096 33.9288C24.445 36.589 24.4862 39.2493 24.8566 41.8687C25.0623 43.383 25.3916 44.8564 25.8442 46.2888C27.4492 51.3638 30.5769 55.2928 35.2272 57.9531C36.791 58.8535 38.4371 59.5493 40.1656 60.1632C40.536 60.286 40.9475 60.4088 41.3179 60.5725C41.8117 60.7771 42.2644 61.0227 42.7171 61.3501C43.3344 61.8412 43.7871 62.4551 43.9928 63.2327C44.1163 63.642 44.1986 64.0922 44.1986 64.5015C44.1986 65.1973 44.1986 65.934 44.1163 66.6297C43.9517 68.717 43.8694 70.7634 43.7871 72.8098C43.7459 74.1604 43.6636 75.5519 43.5813 76.9025C43.5813 76.9434 43.5401 76.9843 43.499 77.0662C43.4578 77.1071 43.3344 77.0662 43.2932 76.9434C43.1286 76.6569 43.0052 76.4114 42.8405 76.1249C37.9021 67.2846 28.6838 60.818 17.8194 59.8358C16.5025 59.713 15.1444 59.5902 13.8275 59.6311C12.7987 59.6311 11.7698 59.6311 10.741 59.6311C10.0825 59.6311 9.38294 59.6721 8.72449 59.6721C7.28412 59.713 5.80261 59.7539 4.36224 59.7539C4.27994 59.7539 4.15648 59.7539 4.07417 59.7539C2.51035 59.7539 0.946526 60.6953 0.329227 62.4551C0.123461 63.069 0 63.7239 0 64.3787C0 66.9571 0 69.5765 0 72.1549C0.0411533 74.4059 0.329225 76.6569 0.864218 78.867C2.5515 85.7837 6.13184 91.5545 11.6464 96.0974C14.9798 98.8805 18.7659 100.804 22.9635 101.909C25.0623 102.482 27.2023 102.728 29.3834 102.932C31.1942 103.096 33.0049 103.178 34.7745 103.178C35.721 103.178 36.6264 103.219 37.5729 103.219C37.7375 103.219 37.861 103.26 38.0256 103.301L38.0668 103.342C38.0668 103.382 38.0668 103.423 38.0668 103.423C37.9845 103.505 37.861 103.587 37.7787 103.628C37.326 103.833 36.8733 104.037 36.4206 104.242C35.0214 104.897 33.6634 105.674 32.5111 106.698C30.9061 108.13 29.8361 109.849 29.3423 111.936C29.0542 113.164 28.8896 114.433 28.9719 115.702C29.013 116.479 29.0954 117.257 29.2188 117.994C29.3834 119.017 29.5069 119.999 29.6303 121.022C29.795 122.168 29.9184 123.273 30.083 124.419C30.2476 125.688 30.4123 126.998 30.5769 128.266C30.7415 129.412 30.8649 130.517 31.0296 131.663C31.1942 132.809 31.3588 133.996 31.5234 135.142C31.7292 136.738 31.9349 138.334 32.1407 139.931C32.3876 141.65 32.6345 143.409 32.8403 145.169C32.9638 145.947 33.0461 146.684 33.1695 147.461C33.2518 147.911 33.4164 148.362 33.6634 148.771C33.9926 149.303 34.4453 149.63 35.0214 149.835C35.7622 150.081 36.5029 150.04 37.2437 149.794C38.1902 149.508 38.7664 148.853 38.9721 147.911C39.0956 147.42 39.1367 146.929 39.0956 146.438C39.0133 144.76 38.8898 143.082 38.8075 141.445C38.7252 139.972 38.6429 138.498 38.5606 136.984C38.4371 135.06 38.3137 133.178 38.1902 131.254C38.1902 131.09 38.1491 130.967 38.1491 130.804C38.0668 129.249 37.9433 127.734 37.861 126.179C37.8198 125.483 37.7787 124.828 37.7375 124.133C37.6964 123.355 37.6552 122.577 37.6552 121.8C37.6552 121.063 37.861 120.408 38.2314 119.794C38.9721 118.607 40.3302 118.239 41.4825 118.526C42.2232 118.689 42.7582 119.14 43.1286 119.794C43.4167 120.326 43.6225 120.94 43.6636 121.554C43.7048 122.25 43.7871 122.987 43.7871 123.682C43.8694 125.811 43.9105 127.939 43.9928 130.067C44.034 131.909 44.1163 133.792 44.1574 135.633C44.2397 138.498 44.3221 141.363 44.4455 144.269C44.4867 145.21 44.5278 146.192 44.569 147.134C44.569 147.543 44.6513 147.952 44.8159 148.321C45.1451 149.098 45.6801 149.589 46.462 149.835C46.7912 149.917 47.1616 149.999 47.4909 149.958C47.8201 149.958 48.1905 149.917 48.5197 149.835C49.3428 149.589 49.8777 149.098 50.1658 148.321C50.3304 147.952 50.3716 147.543 50.4127 147.134C50.4539 146.192 50.495 145.21 50.5362 144.269C50.6185 141.404 50.7008 138.539 50.8243 135.633C50.8654 133.792 50.9477 131.95 50.9889 130.067C51.03 127.939 51.1123 125.811 51.1946 123.682C51.1946 122.987 51.277 122.25 51.3181 121.554C51.3593 120.94 51.5239 120.326 51.8531 119.794C52.2235 119.14 52.7585 118.689 53.4992 118.526C54.6515 118.239 56.0096 118.607 56.7503 119.794C57.1207 120.408 57.3265 121.104 57.3265 121.8C57.3265 122.577 57.2853 123.355 57.2442 124.133C57.203 124.787 57.1619 125.483 57.1207 126.179C57.0384 127.734 56.915 129.249 56.8326 130.804C56.8326 130.967 56.7915 131.09 56.7915 131.254C56.668 133.178 56.5446 135.06 56.4211 136.984C56.3388 138.457 56.2565 139.931 56.1742 141.445C56.0919 143.123 55.9684 144.76 55.8861 146.438C55.845 146.929 55.8861 147.42 56.0096 147.911C56.2565 148.853 56.8326 149.508 57.738 149.794C58.4788 149.999 59.1784 150.04 59.9603 149.835C60.5364 149.63 60.9891 149.303 61.3184 148.771C61.5653 148.362 61.7299 147.952 61.8122 147.461C61.9356 146.684 62.0591 145.947 62.1414 145.169C62.3883 143.409 62.6353 141.69 62.841 139.931C63.0468 138.334 63.2526 136.738 63.4583 135.142C63.6229 133.996 63.7875 132.809 63.9522 131.663C64.1168 130.517 64.2402 129.412 64.4048 128.266C64.5695 126.998 64.7341 125.688 64.8987 124.419C65.0633 123.273 65.1868 122.168 65.3514 121.022C65.4748 119.999 65.5983 119.017 65.7629 117.994C65.8864 117.216 65.9687 116.479 66.0098 115.702C66.0921 114.433 65.9687 113.164 65.6394 111.936C65.1044 109.89 64.0345 108.13 62.4706 106.698C61.3184 105.674 59.9603 104.856 58.5611 104.242C58.1084 104.037 57.6557 103.833 57.203 103.628C57.0796 103.587 56.9973 103.505 56.915 103.423C56.915 103.423 56.8738 103.382 56.915 103.342L56.9561 103.301C57.1207 103.26 57.2442 103.219 57.4088 103.219C58.3553 103.178 59.2607 103.178 60.2072 103.178C62.018 103.178 63.8287 103.096 65.5983 102.932C67.7794 102.728 69.9194 102.441 72.0182 101.909C76.257 100.804 80.0019 98.8805 83.3353 96.0974C88.8499 91.5545 92.3891 85.7837 94.1175 78.867C94.6525 76.6569 94.9406 74.4468 94.9817 72.1549C95.0229 69.5765 94.9817 66.9571 94.9817 64.3787C94.6525 63.683 94.5702 63.069 94.3233 62.4551ZM42.4702 97.7754C42.3467 98.1847 42.2644 98.6349 41.9763 99.0033C41.8117 99.0033 41.6059 99.0442 41.4413 99.0442C39.2191 99.0442 36.9556 99.0442 34.7333 99.0033C33.293 98.9623 31.8938 98.9214 30.4534 98.7986C28.725 98.6758 26.9965 98.4712 25.2681 98.1438C22.017 97.5299 19.0128 96.2611 16.2967 94.4603C11.7698 91.4726 8.47757 87.4208 6.29645 82.5095C5.30877 80.2585 4.65032 77.9257 4.27994 75.47C4.15648 74.5696 4.03302 73.6283 4.03302 72.687C4.03302 69.9448 4.03302 67.2436 3.99186 64.5424C3.99186 64.3787 3.99187 64.215 4.03302 64.0922C4.03302 64.0104 4.15648 63.9285 4.19763 63.8876C4.32109 63.8467 4.44455 63.8467 4.56801 63.8467C8.1895 63.8057 11.7698 63.642 15.3913 63.7648C21.6055 64.0104 27.2023 66.0158 32.0172 69.9039C36.9556 73.8739 40.1656 78.9489 41.6882 85.047C42.1409 86.8888 42.429 88.7305 42.4702 90.6541C42.5113 92.6595 42.5113 94.665 42.5525 96.6704C42.6348 97.0797 42.5525 97.448 42.4702 97.7754ZM90.4137 72.7279C90.4137 73.6692 90.2902 74.5696 90.1668 75.5109C89.7964 77.9257 89.138 80.2995 88.1503 82.5505C85.9692 87.4617 82.6769 91.5135 78.15 94.5013C75.3928 96.3021 72.4297 97.5708 69.1786 98.1847C67.4913 98.5121 65.7629 98.7168 63.9933 98.8395C62.5941 98.9623 61.1537 99.0033 59.7134 99.0442C57.4911 99.0851 55.2277 99.0851 53.0054 99.0851C52.7996 99.0851 52.635 99.0851 52.4704 99.0442C52.1823 98.6758 52.1 98.2256 51.9766 97.8164C51.8943 97.448 51.8119 97.0797 51.8119 96.7113C51.8531 94.7059 51.8531 92.7004 51.8943 90.695C51.9354 88.8123 52.2235 86.9297 52.6762 85.088C54.1988 78.9898 57.4088 73.9148 62.3472 69.9448C67.2033 66.0567 72.7589 64.0513 78.9731 63.8057C82.5946 63.683 86.1749 63.8057 89.7964 63.8876C89.9199 63.8876 90.0433 63.8876 90.1668 63.9285C90.2491 63.9694 90.3314 64.0513 90.3314 64.1332C90.3726 64.2969 90.3726 64.4196 90.3726 64.5834C90.4137 67.2846 90.4137 70.0267 90.4137 72.7279Z" fill="white"/>
</svg>

<svg width="95" height="150" fill="none" xmlns="http://www.w3.org/2000/svg"><path d="M94.323 62.455c-.617-1.76-2.14-2.701-3.745-2.701h-.288c-1.44-.041-2.922-.082-4.362-.082-.7 0-1.358-.04-2.016-.04h-3.087a43.38 43.38 0 00-3.992.204c-10.864 1.023-20.083 7.449-25.021 16.289-.165.286-.288.532-.453.818-.082.123-.206.164-.206.123-.04-.04-.082-.082-.082-.163-.082-1.351-.123-2.702-.206-4.093-.082-2.047-.164-4.134-.329-6.18-.041-.696-.041-1.392-.082-2.129 0-.45.082-.859.206-1.268.205-.778.658-1.392 1.275-1.883a5.133 5.133 0 011.4-.778c.37-.163.74-.286 1.152-.409a28 28 0 004.938-2.21c4.65-2.66 7.778-6.59 9.383-11.664.453-1.433.782-2.906.988-4.42.37-2.66.411-5.28.247-7.94a101.497 101.497 0 00-.288-3.52 42.552 42.552 0 00-.741-4.584 44.92 44.92 0 00-2.757-8.84 37.884 37.884 0 00-7.49-11.296 22.899 22.899 0 00-3.375-2.906C53.787 1.678 52.06.82 50.207.368A11.347 11.347 0 0047.327 0c-.947 0-1.935.123-2.881.368-1.893.45-3.622 1.31-5.186 2.415a22.905 22.905 0 00-3.374 2.906c-3.17 3.356-5.68 7.121-7.49 11.296-1.235 2.824-2.14 5.812-2.758 8.84a42.552 42.552 0 00-.74 4.584c-.124 1.146-.206 2.333-.288 3.52-.165 2.66-.124 5.32.247 7.94.205 1.514.535 2.987.987 4.42 1.605 5.075 4.733 9.004 9.383 11.664 1.564.9 3.21 1.596 4.939 2.21.37.123.782.246 1.152.41.494.204.946.45 1.4.777.616.491 1.07 1.105 1.275 1.883.123.409.206.86.206 1.268 0 .696 0 1.433-.083 2.129-.164 2.087-.247 4.133-.329 6.18-.041 1.35-.123 2.742-.206 4.093 0 .04-.04.081-.082.163-.041.041-.165 0-.206-.123-.164-.286-.288-.532-.453-.818-4.938-8.84-14.156-15.307-25.02-16.29-1.317-.122-2.676-.245-3.992-.204H10.74c-.659 0-1.358.041-2.017.041-1.44.041-2.921.082-4.362.082h-.288c-1.564 0-3.127.941-3.745 2.701A6.093 6.093 0 000 64.38v7.776c.041 2.25.33 4.502.864 6.712 1.687 6.917 5.268 12.688 10.782 17.23 3.334 2.784 7.12 4.707 11.317 5.812 2.1.573 4.24.819 6.42 1.023 1.811.164 3.622.246 5.392.246.946 0 1.851.041 2.798.041.164 0 .288.041.453.082l.04.041v.081a1.25 1.25 0 01-.287.205l-1.358.614c-1.4.655-2.758 1.432-3.91 2.456-1.605 1.432-2.675 3.151-3.169 5.238-.288 1.228-.452 2.497-.37 3.766.041.777.123 1.555.247 2.292a76.62 76.62 0 01.411 3.028c.165 1.146.288 2.251.453 3.397.165 1.269.33 2.579.494 3.847.164 1.146.288 2.251.453 3.397.164 1.146.329 2.333.493 3.479l.618 4.789c.247 1.719.494 3.478.7 5.238.123.778.205 1.515.328 2.292.083.45.247.901.494 1.31.33.532.782.859 1.358 1.064.741.246 1.482.205 2.223-.041.946-.286 1.522-.941 1.728-1.883a4.46 4.46 0 00.124-1.473c-.083-1.678-.206-3.356-.288-4.993-.083-1.473-.165-2.947-.247-4.461-.124-1.924-.247-3.806-.37-5.73 0-.164-.042-.287-.042-.45-.082-1.555-.206-3.07-.288-4.625l-.123-2.046a43.324 43.324 0 01-.083-2.333 3.8 3.8 0 01.576-2.006c.741-1.187 2.1-1.555 3.252-1.268.74.163 1.275.614 1.646 1.268.288.532.494 1.146.535 1.76.04.696.123 1.433.123 2.128.082 2.129.123 4.257.206 6.385.041 1.842.123 3.725.164 5.566.083 2.865.165 5.73.289 8.636l.123 2.865c0 .409.082.818.247 1.187.33.777.864 1.268 1.646 1.514.33.082.7.164 1.029.123.33 0 .7-.041 1.029-.123.823-.246 1.358-.737 1.646-1.514.164-.369.206-.778.247-1.187l.123-2.865c.082-2.865.165-5.73.288-8.636.041-1.841.124-3.683.165-5.566.041-2.128.123-4.256.206-6.385 0-.695.082-1.432.123-2.128.041-.614.206-1.228.535-1.76.37-.654.905-1.105 1.646-1.268 1.152-.287 2.51.081 3.251 1.268.37.614.577 1.31.577 2.006 0 .777-.042 1.555-.083 2.333-.041.654-.082 1.35-.123 2.046-.083 1.555-.206 3.07-.288 4.625 0 .163-.041.286-.041.45-.124 1.924-.247 3.806-.37 5.73-.083 1.473-.165 2.947-.248 4.461-.082 1.678-.206 3.315-.288 4.993-.041.491 0 .982.124 1.473.247.942.823 1.597 1.728 1.883.74.205 1.44.246 2.222.041.576-.205 1.03-.532 1.358-1.064.247-.409.412-.819.494-1.31.124-.777.247-1.514.33-2.292.246-1.76.493-3.479.699-5.238l.617-4.789c.165-1.146.33-2.333.494-3.479.165-1.146.288-2.251.453-3.397.165-1.268.33-2.578.494-3.847.164-1.146.288-2.251.452-3.397a76.63 76.63 0 01.412-3.028c.123-.778.206-1.515.247-2.292a11.617 11.617 0 00-.37-3.766 10.651 10.651 0 00-3.17-5.238c-1.152-1.024-2.51-1.842-3.909-2.456l-1.358-.614a.739.739 0 01-.288-.205s-.041-.041 0-.081l.041-.041c.165-.041.288-.082.453-.082.946-.041 1.852-.041 2.798-.041a58.6 58.6 0 005.391-.246c2.181-.204 4.321-.491 6.42-1.023 4.239-1.105 7.984-3.029 11.317-5.812 5.515-4.542 9.054-10.313 10.783-17.23a30.6 30.6 0 00.864-6.712c.04-2.579 0-5.198 0-7.776-.33-.696-.412-1.31-.659-1.924zM42.47 97.775c-.123.41-.206.86-.494 1.228-.164 0-.37.041-.535.041-2.222 0-4.485 0-6.708-.04-1.44-.042-2.84-.083-4.28-.205a44.894 44.894 0 01-5.185-.655c-3.251-.614-6.255-1.883-8.971-3.684-4.527-2.987-7.82-7.04-10-11.95a27.628 27.628 0 01-2.017-7.04c-.124-.9-.247-1.842-.247-2.783 0-2.742 0-5.443-.041-8.145 0-.163 0-.327.041-.45 0-.082.123-.163.165-.204.123-.041.247-.041.37-.041 3.622-.041 7.202-.205 10.823-.082 6.214.245 11.811 2.25 16.626 6.139 4.939 3.97 8.149 9.045 9.671 15.143.453 1.842.741 3.684.782 5.607.041 2.005.041 4.011.083 6.016.082.41 0 .778-.083 1.105zm47.944-25.047c0 .941-.124 1.842-.247 2.783-.37 2.415-1.029 4.788-2.017 7.04-2.18 4.91-5.473 8.962-10 11.95-2.757 1.801-5.72 3.07-8.971 3.684a42.706 42.706 0 01-5.186.654c-1.399.123-2.84.164-4.28.205-2.222.041-4.485.041-6.708.041-.205 0-.37 0-.535-.04-.288-.37-.37-.82-.493-1.229-.083-.368-.165-.736-.165-1.105.041-2.005.041-4.01.082-6.016.041-1.883.33-3.765.782-5.607 1.523-6.098 4.733-11.173 9.671-15.143 4.856-3.888 10.412-5.894 16.626-6.14 3.622-.122 7.202 0 10.823.083.124 0 .247 0 .37.04.083.041.165.123.165.205.042.164.042.287.042.45.04 2.702.04 5.444.04 8.145z" fill="#fff"/></svg>
